!!!!SEGMENT: pl-sa--565-a-ix-45--001_anonim--anglaise.krn
!!!cenid: 18xx:592
!!!COM: Anonim
!!!COM-rismID: pe30004985
!!!CDT:
!!!CNT:
!!!OTL: Anglaise
!!!PDT:
!!!AGN: Secular; Anglaise
!!!SMS-siglum: PL-SA
!!!SMS-shelfmark: 565/A IX 45
!!!SMS-shelfwork: 001 W
!!!SMS-variant:
!!!SMS-altvar:
!!!NIFC-rismSourceID: 1001077282
!!!NIFC-islandoraID:
!!!URL-pdf-islandora:
!!!URL-scan: https://bc.bdsandomierz.pl/dlibra/publication/1321/edition/1289/content @EN{Scan in the Sandomierz Diocese Digital Library} @PL{Skany w portalu Cyfrowa Biblioteka Diecezjalna w Sandomierzu}
!!!ONB-nifc: Str. 1, s. 1
!!!AIN: 1 empty 1 piano
!!!key:
**kern	**kern
*part2	*part1
*staff2	*staff1
*Ipiano	*Iempty
*I"Piano	*
*clefF4	*clefG2
*k[b-]	*k[b-]
*F:	*F:
*M2/4	*M2/4
*A,A,B,B	*
*A	*A
=1	=1
!	!LO:SIC:o:s:=:v:caud ćwierćnut i ósemek niekonsekwentnie&colon;\npo prawej, na środku i po lewej
8c\L 8A\ 8F\	4cc\
!LO:LO:SIC:o:s:=:v:w takcie były poprawki	!
8c\ 8A\ 8F\	.
8c\ 8A\ 8F\	8a\L
8c\J 8A\ 8F\	8cc\J
=2	=2
*rep	*
8c\L 8A\ 8F\	4ff\
8c\ 8A\ 8F\	.
8c\ 8A\ 8F\	8cc\L
8c\J 8A\ 8F\	8ff\J
*Xrep	*
=3	=3
*2\right	*
*tremolo	*
8e\ 8B-\ 8G\L	8gg\L
8e\ 8B-\ 8G\	8bb-\
8e\ 8B-\ 8G\	8ee\
8e\ 8B-\ 8G\J	8gg\J
=4	=4
8B-\ 8F\L	4ff\
8B-\ 8F\	.
8B-\ 8F\	4ff\
8B-\ 8F\J	.
*Xtremolo	*
=5	=5
*rep	*
!LO:SIC:o:s:=:v: takt zapisany powtórką\nodnoszącą się nie do t. poprzedniego, ale pierwszego	!
8c\L 8A\ 8F\	4cc\
8c\ 8A\ 8F\	.
8c\ 8A\ 8F\	8a\L
8c\J 8A\ 8F\	8cc\J
*Xrep	*
=6	=6
*rep	*
8c\L 8A\ 8F\	4ff\
8c\ 8A\ 8F\	.
8c\ 8A\ 8F\	8cc\L
8c\J 8A\ 8F\	8ff\J
*Xrep	*
=7	=7
*tremolo	*
8e\ 8B-\ 8G\L	8gg\L
8e\ 8B-\ 8G\	8bb-\
8e\ 8B-\ 8G\	8ee\
8e\ 8B-\ 8G\J	8gg\J
*Xtremolo	*
=8	=8
4c\ 4A\ 4F\	4ff\
4r	4r
*B	*B
=9:|!|:	=9:|!|:
4A\ 4F\	4ccc\ 4aa\
4c\	4ccc\ 4aa\
=10	=10
*rep	*
4A\ 4F\	4aa\ 4ff\
4c\	4aa\ 4ff\
*Xrep	*
=11	=11
4C/	8gg\L
.	8ff\
4c\	8gg\
.	8aa\J
=12	=12
4A\ 4F\	4ff\
4B-\	4ff\
=13	=13
*rep	*
!LO:SIC:o:s:=:v:takt zapisany powtórką\nodnoszącą się nie do t. poprzedniego, ale t. 9	!
4A\ 4F\	4ccc\ 4aa\
4c\	4ccc\ 4aa\
*Xrep	*
=14	=14
*rep	*
4A\ 4F\	4aa\ 4ff\
4c\	4aa\ 4ff\
*Xrep	*
=15	=15
4C/	8gg\L
.	8ff\
4c\	8gg\
.	8aa\J
=16	=16
4A\ 4F\	4ff\
4r	4r
==;;	==;;
*-	*-
!!!system-decoration: s1,s2
!!!EED: Leszek Kubiak
!!!EEV: 2020-12-14
!!!ENC: Mateusz Solarz
!!!END: 2020-06-19
!!!YEC: Copyright 2022 Narodowy Instytut Fryderyka Chopina (https://polishscores.org)
!!!YEM: Licence CC BY 4.0 (https://creativecommons.org/licenses/by/4.0)
